src/basic/400/u2BC3-oct.svg

<svg width="24" height="32" viewBox="0 0 24 32" fill="none" xmlns="http://www.w3.org/2000/svg">
<path fill-rule="evenodd" clip-rule="evenodd" d="M7.02944,4h0.2071h9.52696h0.2071l0.1464,0.14645l6.7366,6.73655l0.1464,0.1464v0.2071v9.527v0.2071l-0.1464,0.1464l-6.7366,6.7366l-0.1464,0.1464h-0.2071h-9.52695h-0.20711l-0.14645,-0.1464l-6.73654,-6.7366l-0.14645,-0.1464v-0.2071v-9.527v-0.2071l0.14645,-0.1464l6.73654,-6.73655zM7.44365,5l-6.44365,6.4437v9.1126l6.44365,6.4437h9.11275l6.4436,-6.4436v-9.1128l-6.4437,-6.4436z" fill="black"/>
</svg>

<svg width="24" height="32" viewBox="0 0 24 32" fill="none" xmlns="http://www.w3.org/2000/svg">
<path fill-rule="evenodd" clip-rule="evenodd" d="M7.02944 4H7.23654L16.7635 4H16.9706L17.117 4.14645L23.8536 10.883L24 11.0294V11.2365V20.7635V20.9706L23.8536 21.117L17.117 27.8536L16.9706 28H16.7635H7.23655H7.02944L6.88299 27.8536L0.146447 21.117L1.49012e-07 20.9706V20.7635L0 11.2365V11.0294L0.146447 10.883L6.88299 4.14645L7.02944 4ZM7.44365 5L1 11.4437L1 20.5563L7.44365 27H16.5564L23 20.5564V11.4436L16.5563 5L7.44365 5Z" fill="black"/>
</svg>
